svg/s/KP.svg

<svg width="16" height="12" viewBox="0 0 16 12" fill="none" xmlns="http://www.w3.org/2000/svg">
<mask id="mask0" mask-type="alpha" maskUnits="userSpaceOnUse" x="0" y="0" width="16" height="12">
<rect width="16" height="12" fill="white"/>
</mask>
<g mask="url(#mask0)">
<path fill-rule="evenodd" clip-rule="evenodd" d="M0 0V12H16V0H0Z" fill="#3D58DB"/>
<mask id="mask1" mask-type="alpha" maskUnits="userSpaceOnUse" x="0" y="0" width="16" height="12">
<path fill-rule="evenodd" clip-rule="evenodd" d="M0 0V12H16V0H0Z" fill="white"/>
</mask>
<g mask="url(#mask1)">
<path d="M0 2.5H-0.5V3V9V9.5H0H16H16.5V9V3V2.5H16H0Z" fill="#C51918" stroke="#F7FCFF"/>
<path fill-rule="evenodd" clip-rule="evenodd" d="M5 8.5C6.38071 8.5 7.5 7.38071 7.5 6C7.5 4.61929 6.38071 3.5 5 3.5C3.61929 3.5 2.5 4.61929 2.5 6C2.5 7.38071 3.61929 8.5 5 8.5Z" fill="#F7FCFF"/>
<path fill-rule="evenodd" clip-rule="evenodd" d="M4.99754 6.93486L3.63938 7.87995L4.11852 6.29621L2.79999 5.29657L4.45428 5.26286L4.99754 3.69995L5.54081 5.26286L7.1951 5.29657L5.87657 6.29621L6.35571 7.87995L4.99754 6.93486Z" fill="#C51918"/>
</g>
</g>
</svg>

<svg width="16" height="12" fill="none" xmlns="http://www.w3.org/2000/svg">
  <g mask="url(#KP_-_Korea_(North)__a)">
    <path fill-rule="evenodd" clip-rule="evenodd" d="M0 0v12h16V0H0z" fill="#3D58DB"/>
    <g mask="url(#KP_-_Korea_(North)__b)">
      <path d="M0 2.5h-.5v7h17v-7H0z" fill="#C51918" stroke="#F7FCFF"/>
      <path fill-rule="evenodd" clip-rule="evenodd" d="M5 8.5a2.5 2.5 0 100-5 2.5 2.5 0 000 5z" fill="#F7FCFF"/>
      <path fill-rule="evenodd" clip-rule="evenodd" d="M4.998 6.935l-1.359.945.48-1.584-1.319-1 1.654-.033.544-1.563.543 1.563 1.654.034-1.318 1 .479 1.583-1.358-.945z" fill="#C51918"/>
    </g>
  </g>
</svg>
